icons/conan.svg

<svg width="16" height="16" viewBox="0 0 16 16" fill="none" xmlns="http://www.w3.org/2000/svg">
<path fill-rule="evenodd" clip-rule="evenodd" d="M7.27 2.18541C7.47384 2.06807 7.7048 2.00602 7.94 2.00541C8.18408 1.9835 8.42952 2.02844 8.65 2.13541L12.79 4.52541C12.9929 4.64135 13.1616 4.80869 13.2792 5.01057C13.3968 5.21246 13.4592 5.44176 13.46 5.67541V10.4554C13.4589 10.6903 13.3965 10.9209 13.279 11.1244C13.1615 11.3278 12.993 11.4971 12.79 11.6154L8.65 14.0054C8.44629 14.123 8.21522 14.1849 7.98 14.1849C7.74478 14.1849 7.51371 14.123 7.31 14.0054L3.17 11.6154C2.96704 11.4971 2.79848 11.3278 2.68097 11.1244C2.56347 10.9209 2.50109 10.6903 2.5 10.4554V5.67541C2.50082 5.44176 2.56318 5.21246 2.6808 5.01057C2.79842 4.80869 2.96715 4.64135 3.17 4.52541L7.27 2.18541ZM12.1667 6.33333L8 3.83333L6.75 5.5L8.41667 7.16667L9.66667 9.25C11.3333 8.83333 12.1667 8 12.1667 6.33333ZM3.88333 10.6375L4.7125 11.2667L8 7.99999L6.82917 6.75L3.88333 10.6375Z" fill="#29AED2"/>
</svg>

<svg xmlns="http://www.w3.org/2000/svg" width="16" height="16" fill="none"><path fill="#29AED2" fill-rule="evenodd" d="M7.27 2.185a1.35 1.35 0 0 1 .67-.18c.244-.021.49.023.71.13l4.14 2.39a1.33 1.33 0 0 1 .67 1.15v4.78a1.35 1.35 0 0 1-.67 1.16l-4.14 2.39a1.34 1.34 0 0 1-1.34 0l-4.14-2.39a1.35 1.35 0 0 1-.67-1.16v-4.78a1.33 1.33 0 0 1 .67-1.15l4.1-2.34Zm4.897 4.148L8 3.833 6.75 5.5l1.667 1.667 1.25 2.083c1.666-.417 2.5-1.25 2.5-2.917Zm-8.284 4.304.83.63L8 8 6.83 6.75l-2.947 3.887Z" clip-rule="evenodd"/></svg>
